!!!COM: Isaac, Henrich
!!!CDT: ~1450///-1517/03/26/
!!!OTL: A la battaglia
!!!ONB: textless
**kern	**kern	**kern	**kern
!bassus	!tenor	!contratenor	!superius
*staff4	*staff3	*staff2	*staff1
*Ivox	*Ivox	*Ivox	*Ivox
*clefF4	*clefGv2	*clefGv2	*clefG2
*k[b-]	*k[b-]	*k[b-]	*k[b-]
*M2/2	*M2/2	*M2/2	*M2/2
*MM120	*MM120	*MM120	*MM120
=1-	=1-	=1-	=1-
1F	1r	1r	1r
=2	=2	=2	=2
2G\	1r	1r	1r
2G\	.	.	.
=3	=3	=3	=3
2.A\	1r	1F	1r
8G\L	.	.	.
8F\J	.	.	.
=4	=4	=4	=4
4E\	1r	2G/	1r
2F\	.	.	.
.	.	2G/	.
4E\	.	.	.
=5	=5	=5	=5
4F\	1r	2.A/	1r
2C/	.	.	.
8BB-/L	.	8G/L	.
8AA/J	.	8F/J	.
=6	=6	=6	=6
4GG/	1r	4E/	1r
4FF/	.	2F/	.
2GG/	.	.	.
.	.	4E/	.
=7	=7	=7	=7
2FF/	1F	2F/	1r
4r	.	4r	.
4FF/	.	4c\	.
=8	=8	=8	=8
4C/	2G/	4c\	1r
4C/	.	4c\	.
2C/	2G/	2c\	.
=9	=9	=9	=9
2FF/	2.A/	2c\	1f
4r	.	4r	.
4FF/	8G/L	4c\	.
.	8F/J	.	.
=10	=10	=10	=10
4C/	4E/	4c\	2g/
4C/	2F/	4c\	.
2C/	.	2c\	2g/
.	4E/	.	.
=11	=11	=11	=11
2FF/	4F/	2c\	2.a/
.	2c\	.	.
4r	.	4r	.
4FF/	8B-/L	4c\	8g/L
.	8A/J	.	8f/J
=12	=12	=12	=12
4C/	4G/	4c\	4e/
4C/	4F/	4c\	2f/
2C/	2G/	2c\	.
.	.	.	4e/
=13	=13	=13	=13
[1FF	[1F	2A/	1f
.	.	4r	.
.	.	4A/	.
=14	=14	=14	=14
2FF/]	1F]	4A/	2r
.	.	8G/L	.
.	.	8F/J	.
4r	.	4c\	2c/
[4F\	.	[4A/	.
=15	=15	=15	=15
4F\]	2r	4A/]	2d/
8E\L	.	8G/L	.
8D\J	.	8F/J	.
2C/	2C/	4G/	2e/
.	.	4A/	.
=16	=16	=16	=16
2BB-/	2D/	2B-\	4f/
.	.	.	8e/L
.	.	.	8d/J
4C/	4E/	4A/	4c/
4BB-/	[4F/	4B-\	[4d/
=17	=17	=17	=17
2AA/	8F/L]	4c\	4d/]
.	8E/J	.	.
.	4C/	4F/	2c/
2GG/	2D/	2G/	.
.	.	.	4Bn/
=18	=18	=18	=18
4r	1C	2r	2c/
2G\	.	.	.
.	.	4r	2r
8F\L	.	4G/	.
8E\J	.	.	.
=19	=19	=19	=19
2.D\	1r	2A/	2.f/
.	.	4B-\	.
4C/	.	4c\	4e/
=20	=20	=20	=20
2D\	1r	4A/	2f/
.	.	4B-\	.
2E\	.	2G/	2g/
=21	=21	=21	=21
2F\	2.F/	4F/	2a/
.	.	8G/L	.
.	.	8A/J	.
4BB-/	.	4B-\	2f/
[4C/	4E/	[4A/	.
=22	=22	=22	=22
8C/L]	2F/	8A/L]	1r
8AA/J	.	8G/J	.
4BB-/	.	2F/	.
2GG/	2G/	.	.
.	.	4E/	.
=23	=23	=23	=23
2FF/	2A/	2F/	2r
2F\	2F/	4r	2f/
.	.	4A/	.
=24	=24	=24	=24
4r	1r	2B-\	2g/
4E-\	.	.	.
2F\	.	4r	2a/
.	.	4A/	.
=25	=25	=25	=25
4r	2r	2G/	2b-\
4E-\	.	.	.
2F\	2F/	4r	4a/
.	.	4A/	[4cc\
=26	=26	=26	=26
4r	2G/	2B-\	4cc\]
4E-\	.	.	4b-\
2F\	2A/	4r	4a/
.	.	4A/	8g/L
.	.	.	8f/J
=27	=27	=27	=27
4r	2B-\	2G/	2g/
4E-\	.	.	.
2F\	4A/	4r	[2a/
.	[4c\	4A/	.
=28	=28	=28	=28
4r	4c\]	4B-\	4a/]
4E-\	4B-\	4G/	4g/
2F\	4A/	4.A/	[2f/
.	8G/L	.	.
.	8F/J	8B-\	.
=29	=29	=29	=29
1C	2G/	1c	4f/]
.	.	.	8e/L
.	.	.	8d/J
.	2G/	.	2e/
=30	=30	=30	=30
1FF	1F	1c	1f
=31	=31	=31	=31
1r	1r	[1F	1r
=32	=32	=32	=32
1r	1r	2F/]	1r
.	.	2G/	.
=33	=33	=33	=33
1r	1r	2.A/	[1f
.	.	4G/	.
=34	=34	=34	=34
1r	1r	4A/	2f/]
.	.	4B-\	.
.	.	2G/	2g/
=35	=35	=35	=35
1r	[1F	2F/	2.a/
.	.	[2c\	.
.	.	.	4g/
=36	=36	=36	=36
1r	2F/]	2c\]	4a/
.	.	.	4b-\
.	2G/	2B-\	2g/
=37	=37	=37	=37
[1F	2.A/	4A/	1f
.	.	2c\	.
.	4G/	4d\	.
=38	=38	=38	=38
2F\]	4.A/	4c\	2r
.	.	2f\	.
.	8B-\	.	.
2G\	2G/	.	2b-\
.	.	4e\	.
=39	=39	=39	=39
2A\	2F/	4f\	4a/
.	.	8e\L	2cc\
.	.	8d\J	.
2F\	2A/	4c\	.
.	.	4d\	8b-/L
.	.	.	8a/J
=40	=40	=40	=40
4G\	4G/	2e-\	8b-/L
.	.	.	8a/
4E-\	2c\	.	8g/
.	.	.	8f/J
4F\	.	2d\	4a/
4G\	4B-\	.	[4g/
=41	=41	=41	=41
4C/	4c\	2c\	4g/]
4F\	4A/	.	2f/
2C/	2G/	4r	.
.	.	4c\	4e/
=42	=42	=42	=42
[1FF	[1F	4A/	2f/
.	.	4.c\	.
.	.	.	2r
.	.	8B-\	.
.	.	4c\	.
=43	=43	=43	=43
1FF_	1F]	4A/	2f/
.	.	4.c\	.
.	.	.	2f/
.	.	8B-\	.
.	.	4c\	.
=44	=44	=44	=44
1FF]	1r	2.A/	2.c/
.	.	4B-\	4d/
=45	=45	=45	=45
1r	1r	4c\	4e/
.	.	4d\	4f/
.	.	2B-\	2d/
=46	=46	=46	=46
2FF/	2F/	4c\	2c/
.	.	2A/	.
2FF/	2F/	.	2f/
.	.	8G/L	.
.	.	8F/J	.
=47	=47	=47	=47
2.C/	2.C/	2.E/	4.g/
.	.	.	8f/
.	.	.	4e/
8BB-/L	4D/	4F/	[4d/
8AA/J	.	.	.
=48	=48	=48	=48
4GG/	4E/	4G/	8d/L]
.	.	.	8c/J
4FF/	4F/	4A/	2c/
2GG/	2D/	2G/	.
.	.	.	4Bn/
=49	=49	=49	=49
2r	[1C	2.E/	1c
2G\	.	.	.
.	.	4F/	.
=50	=50	=50	=50
4E\	1C]	2G/	2r
4C/	.	.	.
2G\	.	2C/	2c/
=51	=51	=51	=51
2C/	2r	[1c	2.e/
2r	2C/	.	.
.	.	.	4f/
=52	=52	=52	=52
2C/	2.E/	1c_	2g/
4AA/	.	.	2a/
4FF/	4F/	.	.
=53	=53	=53	=53
2C/	2G/	1c]	2g/
4FF/	2A/	.	2f/
[4F\	.	.	.
=54	=54	=54	=54
4F\]	2G/	4r	2b-\
4E\	.	4G/	.
4F\	4F/	4A/	4a/
4G\	[4B-\	4B-\	[4g/
=55	=55	=55	=55
4E-\	8B-\L]	4G/	4g/]
.	8c\J	.	.
4F\	4A/	8A/L	2f/
.	.	8B-/J	.
2C/	2G/	2c\	.
.	.	.	4e/
=56	=56	=56	=56
2FF/	1F	2A/	2f/
2r	.	2r	2r
=57	=57	=57	=57
*M3/2	*M3/2	*M3/2	*M3/2
*MM180	*MM180	*MM180	*MM180
2.D\	1.r	2.F/	2a/
.	.	.	2a/
4E\	.	4G/	.
2F\	.	4A/	2a/
.	.	4B-\	.
=58	=58	=58	=58
2.C/	1.r	1c	2.g/
4BB-/	.	.	4a/
2GG/	.	2r	2b-\
=59	=59	=59	=59
2.D\	2A/	2.F/	2.a/
.	2A/	.	.
4E\	.	4G/	4g/
2F\	2A/	4A/	2f/
.	.	4B-\	.
=60	=60	=60	=60
2.C/	2.G/	1c	2.e/
4BB-/	4A/	.	4f/
2GG/	2B-\	2r	2g/
=61	=61	=61	=61
2.D\	2.A/	2.F/	2.f/
4E\	4G/	4G/	4e/
2F\	2F/	4A/	2d/
.	.	4B-\	.
=62	=62	=62	=62
2C/	2E/	2G/	2c/
2.BB-/	2.F/	2.B-\	2.d/
4C/	4E/	4A/	4c/
=63	=63	=63	=63
2AA/	2C/	2F/	1c
1GG	1D	1G	.
.	.	.	2Bn/
=64	=64	=64	=64
*M2/2	*M2/2	*M2/2	*M2/2
*MM120	*MM120	*MM120	*MM120
2C/	[1C	2E/	1c
2C/	.	4r	.
.	.	4G/	.
=65	=65	=65	=65
2AA/	1C]	4A/	1r
.	.	4.c\	.
4AA/	.	.	.
.	.	8B-\	.
4AA/	.	[4A/	.
=66	=66	=66	=66
2BB-/	1r	4A/]	1r
.	.	8G/L	.
.	.	8F/J	.
2BB-/	.	8G/L	.
.	.	8F/	.
.	.	8E/	.
.	.	8D/J	.
=67	=67	=67	=67
2AA/	1r	2C/	2c/
[2FF/	.	[2A/	2c/
=68	=68	=68	=68
4FF/]	1r	4A/]	2A/
4GG/	.	4G/	.
4AA/	.	[2F/	4A/
4BB-/	.	.	4A/
=69	=69	=69	=69
1GG	1r	4F/]	2B-/
.	.	8E/L	.
.	.	8D/J	.
.	.	2E/	2B-/
=70	=70	=70	=70
2FF/	2c\	1F	2A/
[2A\	2c\	.	[2F/
=71	=71	=71	=71
4A\]	2A/	1r	4F/]
4G\	.	.	4G/
[2F\	4A/	.	4A/
.	4A/	.	4B-/
=72	=72	=72	=72
4F\]	2B-\	1r	1G
8E\L	.	.	.
8D\J	.	.	.
2E\	2B-\	.	.
=73	=73	=73	=73
2F\	2A/	2c\	2F/
[2D\	[2F/	[2d\	[2a/
=74	=74	=74	=74
4D\]	4F/]	4d\]	4a/]
4E\	4G/	4c\	4g/
2F\	4A/	4.A/	[2f/
.	4B-\	.	.
.	.	8B-\	.
=75	=75	=75	=75
1C	1G	[1c	4f/]
.	.	.	8e/L
.	.	.	8d/J
.	.	.	2e/
=76	=76	=76	=76
1FF	1F	1c]	1f
=77	=77	=77	=77
2r	2r	2r	2r
2BB-/	2D/	2B-\	2f/
=78	=78	=78	=78
2BB-/	2D/	2B-\	2f/
2BB-/	2D/	2B-\	2f/
=79	=79	=79	=79
2.C/	2.E/	2G/	4e/
.	.	.	2g/
.	.	4E/	.
4D\	4D/	4F/	4f/
=80	=80	=80	=80
2C/	2E/	2G/	4e/
.	.	.	2c/
2FF/	2F/	2A/	.
.	.	.	[4d/
=81	=81	=81	=81
1GG	1D	[1G	8d/L]
.	.	.	8c/
.	.	.	8Bn/
.	.	.	8A/J
.	.	.	2Bn/
=82	=82	=82	=82
1C	1C	1G]	1c
=83	=83	=83	=83
*M3/2	*M3/2	*M3/2	*M3/2
*MM180	*MM180	*MM180	*MM180
1.r	1.r	2A/	2c/
.	.	2A/	2c/
.	.	2A/	2c/
=84	=84	=84	=84
1.r	1.r	2.B-\	2.d/
.	.	4A/	4c/
.	.	2G/	2B-/
=85	=85	=85	=85
1.r	1.r	1F	2A/
.	.	.	1G
.	.	2E/	.
=86	=86	=86	=86
1.r	1.r	1F	1F
.	.	2r	2r
=87	=87	=87	=87
2F\	2c\	2f\	2a/
2F\	2c\	2f\	2a/
2F\	2c\	2f\	2a/
=88	=88	=88	=88
1BB-	2.d\	1f	2.b-\
.	4c\	.	4a/
2E-\	2B-\	2e-\	2g/
=89	=89	=89	=89
2F\	2A/	2d\	1f
1C	1G	1c	.
.	.	.	2e/
=90	=90	=90	=90
*M2/2	*M2/2	*M2/2	*M2/2
*MM120	*MM120	*MM120	*MM120
[1FF	[1F	2A/	1f
.	.	[2c\	.
=91	=91	=91	=91
1FF_	1F]	4c\]	2r
.	.	4B-\	.
.	.	4A/	2c/
.	.	4G/	.
=92	=92	=92	=92
1FF]	2r	1F	2.f/
.	2C/	.	.
.	.	.	4e/
=93	=93	=93	=93
1r	2.F/	1r	2f/
.	.	.	2g/
.	4E/	.	.
=94	=94	=94	=94
1r	2F/	1r	2a/
.	2G/	.	2b-\
=95	=95	=95	=95
2F\	2A/	1r	2cc\
4G\	4B-\	.	4b-\
4A\	[4c\	.	[4a/
=96	=96	=96	=96
4F\	4c\]	1r	4a/]
4D\	4d\	.	8g/L
.	.	.	8f/J
2G\	2B-\	.	2g/
=97	=97	=97	=97
2D\	1A	2.d\	2a/
2r	.	.	2r
.	.	8c\L	.
.	.	8B-\J	.
=98	=98	=98	=98
4F\	1r	8A\L	2a/
.	.	8B-\	.
8E\L	.	8c\	.
8F\J	.	8A\J	.
4G\	.	4B-\	2g/
4E\	.	4G/	.
=99	=99	=99	=99
4F\	2A/	8A\L	4f/
.	.	8B-\	.
8E\L	.	8c\	2cc\
8F\J	.	8A\J	.
4G\	2G/	4B-\	.
4E\	.	4G/	4b-\
=100	=100	=100	=100
4F\	4F/	8A\L	4a/
.	.	8B-\	.
8E\L	2c\	8c\	8g/L
8F\J	.	8A\J	8f/J
4G\	.	4B-\	4e/
4E\	4B-\	4G/	[4g/
=101	=101	=101	=101
4F\	4A/	4A/	4g/]
4D\	8G/L	4B-\	2f/
.	8F/J	.	.
2C/	2G/	2c\	.
.	.	.	4e/
=102	=102	=102	=102
2FF/	1F	2A/	1f
2r	.	2r	.
=103	=103	=103	=103
*M3/2	*M3/2	*M3/2	*M3/2
*MM180	*MM180	*MM180	*MM180
2F\	1.r	2A/	1.r
2F\	.	2A/	.
2F\	.	2A/	.
=104	=104	=104	=104
2.E\	1.r	2.G/	1.r
4F\	.	4A/	.
2G\	.	2B-\	.
=105	=105	=105	=105
2F\	1.r	1c	2f/
1D	.	.	2f/
.	.	2B-\	2f/
=106	=106	=106	=106
1C	1.r	1c	2.e/
.	.	.	4f/
2r	.	2r	2g/
=107	=107	=107	=107
2BB-/	2F/	2d\	2f/
2BB-/	2F/	2d\	1d
2BB-/	2F/	2d\	.
=108	=108	=108	=108
2.C/	2.E/	2.G/	2c/
.	.	.	2.e/
4D\	4F/	4F/	.
2C/	2G/	2E/	.
.	.	.	4d/
=109	=109	=109	=109
2FF/	2F/	2A/	1c
1GG	1D	1G	.
.	.	.	2Bn/
=110	=110	=110	=110
*M2/2	*M2/2	*M2/2	*M2/2
*MM120	*MM120	*MM120	*MM120
1C	1C	1G	1c
=111	=111	=111	=111
1r	1r	1c	1cc
=112	=112	=112	=112
1r	1r	2d\	2f/
.	.	2d\	2f/
=113	=113	=113	=113
1C	1c	2c\	2g/
.	.	4G/	2g/
.	.	[4c\	.
=114	=114	=114	=114
2D\	2F/	4c\]	1f
.	.	8B-/L	.
.	.	8A/J	.
2D\	2F/	2B-\	.
=115	=115	=115	=115
1C	2G/	[1c	2r
.	2G/	.	2e/
=116	=116	=116	=116
1FF	2F/	1c]	4.f/
.	.	.	8g/
.	2c\	.	2a/
=117	=117	=117	=117
2r	2B-\	2r	2g/
2GG/	[2d\	[2G/	[2b-\
=118	=118	=118	=118
2GG/	4d\]	4G/]	4b-\]
.	4c\	4A/	4a/
2GG/	4B-\	2B-\	4g/
.	4A/	.	4f/
=119	=119	=119	=119
2C/	2G/	2c\	2e/
2D\	2F/	2B-\	[2f/
=120	=120	=120	=120
1C	1G	1c	4f/]
.	.	.	8e/L
.	.	.	8d/J
.	.	.	2e/
=121	=121	=121	=121
[1FF	[1F	4A/	1f
.	.	4.c\	.
.	.	8B-/L	.
.	.	8A/	.
.	.	8G/J	.
=122	=122	=122	=122
1FF_	1F]	4A/	2r
.	.	4.c\	.
.	.	.	2c/
.	.	8B-/L	.
.	.	8A/	.
.	.	8G/J	.
=123	=123	=123	=123
1FF]	2r	4A/	2.f/
.	.	4.c\	.
.	2C/	.	.
.	.	8B-/L	.
.	.	8A/	4e/
.	.	8G/J	.
=124	=124	=124	=124
2r	2.F/	4A/	2d/
.	.	4A/	.
2FF/	.	4r	2c/
.	4E/	4A/	.
=125	=125	=125	=125
4GG/	2D/	4B-\	2B-/
4GG/	.	2G/	.
2AA/	2C/	.	2c/
.	.	4F/	.
=126	=126	=126	=126
4GG/	2BB-/	2.G/	2d/
4GG/	.	.	.
4C/	2C/	.	4c/
4C/	.	4A/	[4g/
=127	=127	=127	=127
4BB-/	2D/	2B-\	4g/]
4BB-/	.	.	4f/
4C/	4C/	4G/	4e/
4GG/	[4G/	[4B-\	[4d/
=128	=128	=128	=128
4BB-/	8G/L]	4B-\]	4d/]
.	8F/J	.	.
4C/	4E/	4A/	2c/
2GG/	2D/	2G/	.
.	.	.	4Bn/
=129	=129	=129	=129
1G	1C	1E	1c
=130	=130	=130	=130
2r	2r	2r	2r
2C/	2c\	2G/	2g/
=131	=131	=131	=131
2C/	2c\	2G/	2g/
2E\	2c\	2G/	2g/
=132	=132	=132	=132
1D	2.A/	1F	2.a/
.	4Bn\	.	8g/L
.	.	.	8f/J
=133	=133	=133	=133
1C	1c	1G	1e
=134	=134	=134	=134
2GG/	2B-\	2G/	2.g/
2C/	2c\	4.E/	.
.	.	.	8f/L
.	.	8F/	8e/J
=135	=135	=135	=135
2GG/	2B-\	2G/	4d/
.	.	.	2g/
2C/	2c\	4.E/	.
.	.	.	8f/L
.	.	8F/	8e/J
=136	=136	=136	=136
2GG/	2B-\	2G/	4d/
.	.	.	2g/
2C/	2c\	4.E/	.
.	.	.	8f/L
.	.	8F/	8e/J
=137	=137	=137	=137
2GG/	2B-\	2G/	4.d/
.	.	.	8c/
4C/	4c\	4E/	4e/
[4BB-/	[4d\	[4D/	[4f/
=138	=138	=138	=138
8BB-/L]	4d\]	8D/L]	8f/L]
8C/J	.	8E/	8e/J
4AA/	2c\	8F/	4c/
.	.	8D/J	.
2GG/	.	2G/	2d/
.	4Bn\	.	.
=139	=139	=139	=139
2C/	1c	2G/	1c
2r	.	2r	.
=140	=140	=140	=140
2C/	1r	2G/	1r
2F\	.	2A/	.
=141	=141	=141	=141
4E\	1r	4G/	1r
4C/	.	2c\	.
2G\	.	.	.
.	.	4B-\	.
=142	=142	=142	=142
2C/	2r	2c\	1r
2F\	2A/	2r	.
=143	=143	=143	=143
4E\	4G/	4c\	1r
4C/	2c\	4c\	.
2G\	.	2d\	.
.	4B-\	.	.
=144	=144	=144	=144
2C/	2c\	4.c\	4g/
.	.	.	4g/
.	.	8B-\	.
2F\	2r	4A/	2a/
.	.	4F/	.
=145	=145	=145	=145
4E\	4c\	2G/	4g/
4C/	4c\	.	2cc\
2G\	2d\	2r	.
.	.	.	4b-\
=146	=146	=146	=146
2C/	2c\	4r	8cc/L
.	.	.	8b-/
.	.	4G/	8a/
.	.	.	8g/J
4F\	4A/	4F/	4a/
4E-\	4B-\	4G/	[4g/
=147	=147	=147	=147
2D\	2F/	4A/	8g/L]
.	.	.	8f/J
.	.	4B-\	2f/
2C/	2G/	2c\	.
.	.	.	4e/
=148	=148	=148	=148
1FF	1F	1c	1f
=149	=149	=149	=149
1r	1r	2.c\	2.e/
.	.	4d\	4f/
=150	=150	=150	=150
1r	1r	2c\	2g/
.	.	2F/	2a/
=151	=151	=151	=151
2.C/	2.E/	2c\	2.g/
.	.	4.A/	.
4D\	4F/	.	4f/
.	.	8B-\	.
=152	=152	=152	=152
2C/	2G/	4.c\	2e/
.	.	8d\	.
2FF/	2A/	4c\	2c/
.	.	4r	.
=153	=153	=153	=153
2.C/	2.G/	2c\	2.e/
.	.	4.A/	.
4D\	4F/	.	4f/
.	.	8B-\	.
=154	=154	=154	=154
2C/	2E/	4.c\	2g/
.	.	8d\	.
2FF/	2C/	4c\	2a/
.	.	4r	.
=155	=155	=155	=155
2.C/	2.E/	2c\	2.g/
.	.	4.A/	.
4D\	4F/	.	4f/
.	.	8B-\	.
=156	=156	=156	=156
2C/	2G/	4.c\	2e/
.	.	8d\	.
2FF/	2A/	4c\	2c/
.	.	4r	.
=157	=157	=157	=157
2.C/	2.G/	2c\	2.e/
.	.	4.A/	.
4D\	4F/	.	4f/
.	.	8B-\	.
=158	=158	=158	=158
2C/	2E/	4.c\	2g/
.	.	8B-\	.
2FF/	2F/	2A/	4c/
.	.	.	[4d/
=159	=159	=159	=159
1GG	1D	2.G/	8d/L]
.	.	.	8c/
.	.	.	8Bn/
.	.	.	8A/J
.	.	.	2Bn/
.	.	4F/	.
=160	=160	=160	=160
2r	[1C	4E/	1c
.	.	4D/	.
[2G\	.	2C/	.
=161	=161	=161	=161
4G\]	1C]	4r	2r
4F\	.	4c\	.
2E\	.	4c\	2g/
.	.	8Bn\L	.
.	.	8c\J	.
=162	=162	=162	=162
4D\	2r	4d\	4a/
4F\	.	4c\	4a/
4C/	2G/	4c\	4g/
4E\	.	8Bn\L	4e/
.	.	8c\J	.
=163	=163	=163	=163
4D\	4A/	4d\	4.f/
4F\	4A/	4c\	.
.	.	.	8g/
4C/	4.G/	4c\	4e/
4E\	.	8Bn\L	4e/
.	8E/	8c\J	.
=164	=164	=164	=164
4D\	4.F/	4d\	4a/
4F\	.	4c\	4a/
.	8G/	.	.
4C/	4E/	4c\	4g/
4E\	4E/	8Bn\L	4e/
.	.	8c\J	.
=165	=165	=165	=165
4D\	4A/	4d\	4.f/
4F\	4A/	4c\	.
.	.	.	8g/
4C/	4.G/	4c\	2e/
4E\	.	8Bn\L	.
.	8E/	8c\J	.
=166	=166	=166	=166
4D\	4.F/	4d\	2a/
4F\	.	4c\	.
.	8G/	.	.
4C/	4E/	4c\	2g/
4E\	4E/	8Bn\L	.
.	.	8c\J	.
=167	=167	=167	=167
4D\	2A/	4d\	4f/
4F\	.	4c\	2f/
2C/	2G/	2c\	.
.	.	.	4e/
=168	=168	=168	=168
4FF/	4F/	4r	2f/
4AA/	2F/	4c\	.
2GG/	.	4B-\	2r
.	4E/	8A/L	.
.	.	8G/J	.
=169	=169	=169	=169
1FF	1F	2A/	1r
.	.	4r	.
.	.	4A/	.
=170	=170	=170	=170
4r	1r	4A/	1r
4FF/	.	4A/	.
4C/	.	4.G/	.
4C/	.	.	.
.	.	8A/	.
=171	=171	=171	=171
4D\	1r	4B-\	1r
4C/	.	4.c\	.
2AA/	.	.	.
.	.	8B-\	.
.	.	4A/	.
=172	=172	=172	=172
4BB-/	1r	4G/	1r
4.C/	.	4.A/	.
8BB-/	.	8G/	.
4AA/	.	[4F/	.
=173	=173	=173	=173
2GG/	1r	4F/]	2b-\
.	.	4E/	.
2FF/	.	2F/	4a/
.	.	.	4a/
=174	=174	=174	=174
1r	2B-\	1r	2g/
.	4c\	.	4a/
.	4c\	.	[4cc\
=175	=175	=175	=175
2BB-/	4d\	1r	4cc\]
.	4d\	.	4b-\
4C/	2c\	.	4a/
4C/	.	.	[4g/
=176	=176	=176	=176
4D\	2F/	1r	4g/]
4D\	.	.	2f/
2C/	2G/	.	.
.	.	.	4e/
=177	=177	=177	=177
1FF	[1F	2c\	[1f
.	.	2c\	.
=178	=178	=178	=178
1r	1F]	2d\	1f]
.	.	2c\	.
=179	=179	=179	=179
2F\	1r	4.A/	1r
.	.	8B-\	.
2F\	.	4c\	.
.	.	[4d\	.
=180	=180	=180	=180
2G\	1r	4d\]	1r
.	.	8c\L	.
.	.	8B-\J	.
2F\	.	2A/	.
=181	=181	=181	=181
4.D\	1r	4.B-\	1r
8E-\	.	8c\	.
4F\	.	4d\	.
[4G\	.	4e-\	.
=182	=182	=182	=182
8G\L]	1r	4d\	1r
8F\J	.	.	.
4E-\	.	2c\	.
4D\	.	.	.
4D\	.	4Bn\	.
=183	=183	=183	=183
2C/	1r	2c\	2r
2r	.	4F/	2cc\
.	.	8E-/L	.
.	.	8F/J	.
=184	=184	=184	=184
2r	2r	4G/	4b-\
.	.	4E-/	8a/L
.	.	.	8g/J
4FF/	2c\	2F/	2a/
8EE-/L	.	.	.
8FF/J	.	.	.
=185	=185	=185	=185
4GG/	4B-\	2r	2g/
4EE-/	8A/L	.	.
.	8G/J	.	.
2FF/	2A/	4F/	2cc\
.	.	8E-/L	.
.	.	8F/J	.
=186	=186	=186	=186
2r	2G/	4G/	4b-\
.	.	4E-/	8a/L
.	.	.	8g/J
4FF/	2c\	2F/	2a/
8EE-/L	.	.	.
8FF/J	.	.	.
=187	=187	=187	=187
4GG/	4B-\	2r	2g/
4EE-/	8A/L	.	.
.	8G/J	.	.
4FF/	4A/	4c\	4f/
4C/	4G/	8B-\L	[4g/
.	.	8c\J	.
=188	=188	=188	=188
4F\	4A/	4d\	8g/L]
.	.	.	8f/J
4D\	4B-\	4B-\	2f/
2C/	2G/	2c\	.
.	.	.	4e/
=189	=189	=189	=189
2FF/	2F/	2A/	2f/
2BB-/	4r	4F/	4r
.	4F/	4B-\	4f/
=190	=190	=190	=190
2BB-/	4B-\	4F/	4d/
.	4F/	4B-\	4f/
4BB-/	4B-\	4F/	4d/
4BB-/	4F/	4B-\	4f/
=191	=191	=191	=191
4BB-/	4B-\	4F/	4d/
4BB-/	4F/	4B-\	4f/
4BB-/	4.B-\	2F/	4d/
4BB-/	.	.	4f/
.	8A/	.	.
=192	=192	=192	=192
4C/	4G/	4c\	4c/
4D\	4F/	4B-\	2f/
2C/	2G/	2c\	.
.	.	.	4e/
=193	=193	=193	=193
1FF	1F	2A/	2f/
.	.	2r	2r
=194	=194	=194	=194
*M3/2	*M3/2	*M3/2	*M3/2
*MM180	*MM180	*MM180	*MM180
2C/	2c\	2G/	2e/
2C/	2c\	2G/	2e/
2C/	2c\	2G/	2e/
=195	=195	=195	=195
1D	1A	1d	1f
2D\	2A/	2d\	2f/
=196	=196	=196	=196
1GG	1B-	1d	2.g/
.	.	.	4f/
2GG/	2B-\	2d\	4e/
.	.	.	4d/
=197	=197	=197	=197
1C	1G	1c	1e
2C/	2G/	2c\	2e/
=198	=198	=198	=198
1FF	2.A/	1c	2.f/
.	4G/	.	4e/
2FF/	4F/	2c\	4d/
.	4E/	.	4c/
=199	=199	=199	=199
2.BB-/	1F	2.B-\	2.d/
4C/	.	4A/	4e/
2D\	2F/	2B-\	4f/
.	.	.	4g/
=200	=200	=200	=200
2C/	1G	2c\	2e/
2GG/	.	2B-\	2.d/
2AA/	2F/	[2A/	.
.	.	.	4c/
=201	=201	=201	=201
2C/	2E/	2A/]	1c
1GG	1D	1G	.
.	.	.	2Bn/
=202	=202	=202	=202
*M2/2	*M2/2	*M2/2	*M2/2
*MM120	*MM120	*MM120	*MM120
1C	1C	2G/	1c
.	.	2r	.
=203	=203	=203	=203
1r	1r	2G/	1r
.	.	2F/	.
=204	=204	=204	=204
1r	1r	2G/	2g/
.	.	2A/	2f/
=205	=205	=205	=205
2GG/	2G/	2B-\	2g/
2D\	2F/	2A/	2a/
=206	=206	=206	=206
2GG/	2G/	4G/	2b-\
.	.	2G/	.
2D\	2A/	.	2a/
.	.	4F/	.
=207	=207	=207	=207
2GG/	2B-\	8G/L	4g/
.	.	8A/	.
.	.	8B-/	2g/
.	.	8c/J	.
2D\	2A/	2d\	.
.	.	.	4f/
=208	=208	=208	=208
2GG/	4G/	2d\	2g/
.	2G/	.	.
2D\	.	2d\	2r
.	4F/	.	.
=209	=209	=209	=209
4r	2G/	4r	4r
4GG/	.	4d\	4g/
4D\	4r	4d\	4f/
4GG/	4G/	4d\	4g/
=210	=210	=210	=210
4D\	4F/	4d\	4a/
4GG/	4G/	4d\	4b-\
4D\	4A/	4d\	4a/
4GG/	4B-\	4d\	4g/
=211	=211	=211	=211
4D\	4A/	4d\	4f/
4GG/	4G/	4d\	4b-\
4D\	4F/	4d\	4a/
4E-\	4B-\	4G/	[4g/
=212	=212	=212	=212
4F\	4A/	4A/	8g/L]
.	.	.	8f/J
4D\	4F/	4B-\	2f/
2C/	2G/	2c\	.
.	.	.	4e/
=213	=213	=213	=213
1FF	1F	1c	1f
==	==	==	==
*-	*-	*-	*-
!!!ENC: Craig Stuart Sapp
!!!END: 2004/12/09/
